resources/haticons/SVG/mug.svg

<!-- Generated by IcoMoon.io -->
<svg version="1.1" xmlns="http://www.w3.org/2000/svg" width="24" height="24" viewBox="0 0 24 24">
<title>mug</title>
<path d="M22.5 7.5h-4.5v-2.25c0-2.071-4.029-3.75-9-3.75s-9 1.679-9 3.75v15c0 2.071 4.029 3.75 9 3.75s9-1.679 9-3.75v-2.25h4.5c0.828 0 1.5-0.672 1.5-1.5v-7.5c0-0.828-0.672-1.5-1.5-1.5zM4.126 6.056c-0.867-0.286-1.392-0.592-1.674-0.806 0.281-0.215 0.807-0.521 1.674-0.806 1.358-0.447 3.089-0.694 4.874-0.694s3.516 0.246 4.874 0.694c0.867 0.286 1.392 0.592 1.674 0.806-0.281 0.214-0.807 0.52-1.674 0.806-1.358 0.447-3.089 0.694-4.874 0.694s-3.516-0.246-4.874-0.694zM21 15h-3v-4.5h3v4.5z"></path>
</svg>

<svg xmlns="http://www.w3.org/2000/svg" width="24" height="24"><path d="M22.5 7.5H18V5.25c0-2.071-4.029-3.75-9-3.75S0 3.179 0 5.25v15C0 22.321 4.029 24 9 24s9-1.679 9-3.75V18h4.5a1.5 1.5 0 0 0 1.5-1.5V9a1.5 1.5 0 0 0-1.5-1.5zM4.126 6.056c-.867-.286-1.392-.592-1.674-.806.281-.215.807-.521 1.674-.806C5.484 3.997 7.215 3.75 9 3.75s3.516.246 4.874.694c.867.286 1.392.592 1.674.806-.281.214-.807.52-1.674.806-1.358.447-3.089.694-4.874.694s-3.516-.246-4.874-.694zM21 15h-3v-4.5h3V15z"/></svg>
